data/playwrite-us-modern.svg

<svg width="156.32" height="25.088" viewBox="0 0 156.32 25.088" xmlns="http://www.w3.org/2000/svg"><path transform="translate(0 18.928) scale(.014 -.014)" d="m178-14q-44 0-44 28v896q0 14 11.5 20.5t33.5 6.5h201q105 0 175.5-23.5t106.5-75 36-136.5q0-80-30-136.5t-79-93-108-57.5-119-31q-39-5-75.5-8t-64.5-3v-359q0-14-11-21t-33-7zm44 466q20 0 43 1.5t47.5 4 49.5 5.5q63 11 119 37t91.5 75 35.5 126q0 57-25.5 91t-76.5 49.5-126 15.5h-158z"/><path transform="translate(10.346 18.928) scale(.014 -.014)" d="m194-17q-52 0-75.5 27t-23.5 76v841q0 13 10.5 19.5t31.5 6.5q22 0 33-6.5t11-19.5v-831q0-20 9-29t22-9q11 0 18.5 3t14.5 8.5 14 10.5q8 6 17 3.5t18-13.5q5-7 7.5-17t-2.5-18q-11-17-28.5-28.5t-37.5-17.5-39-6z"/><path transform="translate(14.532 18.928) scale(.014 -.014)" d="m258-17q-57 0-101 27.5t-69 83.5-25 141q0 52 9.5 96t28.5 79 46 59 62 37 77 13q32 0 66-10.5t64-27.5v5q0 15 11 22t33 7 32.5-6.5 10.5-20.5v-392q0-13 4-21.5t11-12.5 16-4q10 0 16.5 2.5t13 7.5 15.5 12q7 6 16 3.5t18-10.5q9-10 10-21t-4-19q-11-16-28-27t-36.5-17-39.5-6q-23 0-40 5t-29 15.5-18.5 25.5-9.5 34q0 1-1 4.5t-1 7.5q-23-37-49.5-57t-54.5-27.5-54-7.5zm-107 256q0-55 13-94.5t39.5-60.5 66.5-21q29 0 55.5 10t49.5 33 41 60v242q-31 19-60 25.5t-61 6.5q-26 0-48-8t-40-24-30.5-40-19-56-6.5-73z"/><path transform="translate(23.24 18.928) scale(.014 -.014)" d="m269-17q-58 0-97 20.5t-58.5 61-19.5 101.5v323q0 13 10.5 19.5t31.5 6.5q22 0 33-6.5t11-19.5v-323q0-35 11-59t33.5-36 55.5-12q28 0 52 9t43.5 25 34.5 38 25 47v311q0 13 10.5 19.5t32.5 6.5q21 0 32-6.5t11-19.5v-714q0-76-27.5-128t-77-78-116.5-26q-45 0-81 12.5t-62.5 33.5-43.5 44q-10 14-7.5 30.5t23.5 27.5q18 9 28.5 7.5t22.5-15.5q30-32 59.5-47t69.5-15q39 0 67 16t43.5 50.5 15.5 89.5v299q-13-21-30.5-38.5t-39-29.5-45.5-18.5-51-6.5z"/><path transform="translate(32.032 18.928) scale(.014 -.014)" d="m229-15q-22 0-32 7t-15 19l-157 454q-7 20 4.5 35t39.5 15q15 0 24-6t13-20l124-380 132 380q5 14 14.5 20t25.5 6q15 0 25-6t14-20l135-380 123 380q5 14 14 20t24 6q29 0 40-14t3-36l-159-454q-4-12-14-19t-32-7-30.5 7.5-12.5 18.5l-130 367-127-367q-4-11-14.5-18.5t-31.5-7.5z"/><path transform="translate(43.288 18.928) scale(.014 -.014)" d="m161-15q-21 0-31.5 6.5t-10.5 19.5v358q0 42-13 56.5t-36 14.5q-17 0-28.5-9t-18-26-8.5-40q-1-16-9-23.5t-26-7.5q-16 0-26 7t-9 33q2 43 17.5 74.5t43 49 64.5 17.5q27 0 49-6t38-19 26.5-32 15.5-45l1-5q11 26 26 46.5t32 35 35.5 22 36.5 7.5q14 0 24.5-7t10.5-31q0-28 5.5-47t16-28.5 24.5-9.5q25 0 52 23t52 51q9 10 20 7.5t20.5-12.5 12.5-21.5-4-19.5q-33-40-73-68t-80-28q-27 0-50.5 12t-39 36-20.5 58q-15-6-28.5-19t-26-31.5-23-42-18.5-49.5v-281q0-13-11-19.5t-33-6.5z"/><path transform="translate(51.002 18.928) scale(.014 -.014)" d="m193-17q-52 0-75.5 27t-23.5 76v403q0 13 10.5 19.5t31.5 6.5q22 0 33-6.5t11-19.5v-393q0-20 9-29t22-9q11 0 18.5 3.5t14 8.5 14.5 11q6 5 16.5 1t16.5-12q8-9 9-19t-5-18q-11-16-27.5-27t-36-17-38.5-6zm-55 686q-28 0-42.5 15.5t-14.5 46.5q0 32 14.5 48t42.5 16q27 0 41-16t14-48q1-31-13.5-46.5t-41.5-15.5z"/><path transform="translate(55.202 18.928) scale(.014 -.014)" d="m243-17q-42 0-69.5 15.5t-41 44-13.5 68.5v309h-78q-15 0-21 9t-6 31q0 23 6 31.5t21 8.5h78v204q0 13 10.5 19.5t31.5 6.5q22 0 33-6.5t11-19.5v-204h126q15 0 21.5-8.5t6.5-31.5q0-22-6.5-31t-21.5-9h-126v-299q0-34 9.5-48.5t34.5-14.5q23 0 39.5 11t34.5 27q12 11 22.5 7.5t19.5-12.5q11-10 11.5-20.5t-5.5-19.5q-17-25-38-40t-44-21.5-46-6.5z"/><path transform="translate(60.634 18.928) scale(.014 -.014)" d="m293-19q-79 0-130 34t-75.5 90-24.5 123 18.5 120.5 52.5 91.5 80.5 58.5 101.5 20.5q49 0 85.5-14.5t57-44 20.5-74.5q0-38-16.5-69t-46.5-54.5-71-39-92-23.5-108-9v70q33 0 67.5 4.5t66.5 13.5 57 23.5 39.5 33.5 14.5 43q0 32-21.5 46t-57.5 14q-33 0-61.5-13t-51-38.5-35-61.5-12.5-82q0-55 17.5-96t49.5-64 77-23q30 0 51 7.5t39.5 23 40.5 37.5q15 15 27.5 15t26.5-11 17-23.5-7-25.5q-25-38-59-60.5t-69.5-32.5-68.5-10z"/><path transform="translate(72.198 18.928) scale(.014 -.014)" d="m458-19q-76 0-136 21t-102 61.5-64.5 98-22.5 130.5v634q0 14 11 20.5t33 6.5 33-6.5 11-20.5v-634q0-70 28-121t81-78 128-27q74 0 125.5 27t79 78 27.5 121v634q0 14 11 20.5t33 6.5q44 0 44-27v-634q0-97-38.5-167t-110-107-171.5-37z"/><path transform="translate(84.952 18.928) scale(.014 -.014)" d="m344-19q-30 0-66 6t-72.5 19.5-69 35.5-55.5 54q-7 10-6.5 19t14.5 23q14 15 23.5 16.5t28.5-15.5q23-22 53-38t67.5-25.5 82.5-9.5q55 0 95.5 11t67.5 33.5 40.5 57 13.5 81.5q0 39-13.5 67t-39 48.5-60.5 37-78 29.5q-37 12-75 27.5t-72.5 38-61 53.5-42 72-15.5 96q0 57 20 100t56.5 73.5 86 46 109.5 15.5q53 0 97.5-14.5t82.5-39 72-55.5q11-10 9-20.5t-13-21.5q-12-13-23.5-18t-22.5 3q-28 23-58 41.5t-65.5 29-78.5 10.5-76-9.5-56.5-28-35-47-11.5-65.5q0-44 14-75.5t40.5-54.5 62.5-39 78-29q44-14 90.5-33.5t85-50 62-75.5 23.5-112q0-66-21-116t-61-83.5-97.5-51-129.5-17.5z"/><path transform="translate(99.316 18.928) scale(.014 -.014)" d="m178-14q-44 0-44 28v912q0 14 11 20.5t33 6.5q20 0 28.5-7.5t15.5-19.5l332-588 333 588q6 12 15 19.5t28 7.5q44 0 44-27v-912q0-14-11-21t-33-7q-43 0-43 28v742l-287-505q-7-12-16.5-16.5t-28.5-4.5-29 3.5-18 17.5l-286 505v-742q0-14-11-21t-33-7z"/><path transform="translate(114.83 18.928) scale(.014 -.014)" d="m295-19q-67 0-119.5 35t-82.5 95.5-30 138.5q0 59 17 108t48.5 85 73.5 56 93 20q67 0 119-34.5t82-95.5 30-139q0-47-11-88t-31.5-74-49-57-64-37-75.5-13zm0 80q33 0 59.5 13t45 38 28.5 60 10 78q0 58-17 100.5t-49 65.5-77 23q-33 0-60-13t-45.5-38-28.5-59.5-10-78.5q0-58 17.5-100.5t49.5-65.5 77-23z"/><path transform="translate(123.06 18.928) scale(.014 -.014)" d="m258-17q-57 0-101 27.5t-69 83.5-25 141q0 52 10 96t28.5 79 46 59 63.5 37 79 13q30 0 64-9t64-26v443q0 13 11 19.5t32 6.5q22 0 32.5-6.5t10.5-19.5v-831q0-20 8.5-29t22.5-9q9 0 16.5 3t14.5 8 15 11 17.5 2 16.5-12q8-9 9.5-19t-4.5-18q-11-16-28-27t-36.5-17-39.5-6q-38 0-59 14t-29.5 34.5-8.5 41.5q0 1 0 1.5t0 1.5q-24-38-51.5-58t-55.5-27.5-54-7.5zm-107 256q0-55 13-94.5t39.5-60.5 66.5-21q29 0 55.5 10t50 33 42.5 60v238q-31 20-61 28t-62 8q-26 0-48-8t-40-24-30.5-40-19-56-6.5-73z"/><path transform="translate(131.85 18.928) scale(.014 -.014)" d="m293-19q-79 0-130 34t-75.5 90-24.5 123 18.5 120.5 52.5 91.5 80.5 58.5 101.5 20.5q49 0 85.5-14.5t57-44 20.5-74.5q0-38-16.5-69t-46.5-54.5-71-39-92-23.5-108-9v70q33 0 67.5 4.5t66.5 13.5 57 23.5 39.5 33.5 14.5 43q0 32-21.5 46t-57.5 14q-33 0-61.5-13t-51-38.5-35-61.5-12.5-82q0-55 17.5-96t49.5-64 77-23q30 0 51 7.5t39.5 23 40.5 37.5q15 15 27.5 15t26.5-11 17-23.5-7-25.5q-25-38-59-60.5t-69.5-32.5-68.5-10z"/><path transform="translate(139.22 18.928) scale(.014 -.014)" d="m161-15q-21 0-31.5 6.5t-10.5 19.5v358q0 42-13 56.5t-36 14.5q-17 0-28.5-9t-18-26-8.5-40q-1-16-9-23.5t-26-7.5q-16 0-26 7t-9 33q2 43 17.5 74.5t43 49 64.5 17.5q27 0 49-6t38-19 26.5-32 15.5-45l1-5q11 26 26 46.5t32 35 35.5 22 36.5 7.5q14 0 24.5-7t10.5-31q0-28 5.5-47t16-28.5 24.5-9.5q25 0 52 23t52 51q9 10 20 7.5t20.5-12.5 12.5-21.5-4-19.5q-33-40-73-68t-80-28q-27 0-50.5 12t-39 36-20.5 58q-15-6-28.5-19t-26-31.5-23-42-18.5-49.5v-281q0-13-11-19.5t-33-6.5z"/><path transform="translate(146.93 18.928) scale(.014 -.014)" d="m161-15q-21 0-31.5 6.5t-10.5 19.5v358q0 42-13 56.5t-36 14.5q-17 0-28.5-9t-18-26-8.5-40q-1-16-9-23.5t-26-7.5q-16 0-26 7t-9 33q2 43 17.5 74.5t43 49 64.5 17.5q26 0 46.5-5.5t36.5-17 27-29 17-41.5l2-8q14 24 33 43t41.5 33 48 21.5 53.5 7.5q52 0 91.5-19t62-59.5 22.5-106.5v-238q0-13 4-21.5t11.5-12.5 16.5-4 16.5 3 14.5 8.5 14 10.5q8 6 18 2t17-12q8-10 8.5-20t-5.5-19q-11-15-27.5-26t-35.5-16.5-39-5.5q-26 0-45 7t-31 20-17.5 32.5-5.5 43.5v240q0 35-10.5 60.5t-32.5 39-59 13.5q-21 0-43.5-6t-43-19.5-39-35.5-32.5-54v-313q0-13-11-19.5t-33-6.5z"/></svg>

<?xml version="1.0" encoding="utf-8" ?>
<svg baseProfile="tiny" height="100%" version="1.2" width="100%" xmlns="http://www.w3.org/2000/svg" xmlns:ev="http://www.w3.org/2001/xml-events" xmlns:xlink="http://www.w3.org/1999/xlink"><defs /><g><path d="M178 -14Q134 -14 134 14V910Q134 924 145.5 930.5Q157 937 179 937H380Q485 937 555.5 913.5Q626 890 662.0 838.5Q698 787 698 702Q698 622 668.0 565.5Q638 509 589.0 472.5Q540 436 481.0 415.0Q422 394 362 384Q323 379 286.5 376.0Q250 373 222 373V14Q222 0 211.0 -7.0Q200 -14 178 -14ZM222 452Q242 452 265.0 453.5Q288 455 312.5 457.5Q337 460 362 463Q425 474 481.0 500.0Q537 526 572.5 575.0Q608 624 608 701Q608 758 582.5 792.0Q557 826 506.0 841.5Q455 857 380 857H222Z" transform="translate(0.0, 72) scale(0.072, -0.072)" /><path d="M194 -17Q142 -17 118.5 10.0Q95 37 95 86V927Q95 940 105.5 946.5Q116 953 137 953Q159 953 170.0 946.5Q181 940 181 927V96Q181 76 190.0 67.0Q199 58 212 58Q223 58 230.5 61.0Q238 64 245.0 69.5Q252 75 259 80Q267 86 276.0 83.5Q285 81 294 70Q299 63 301.5 53.0Q304 43 299 35Q288 18 270.5 6.5Q253 -5 233.0 -11.0Q213 -17 194 -17Z" transform="translate(53.208, 72) scale(0.072, -0.072)" /><path d="M258 -17Q201 -17 157.0 10.5Q113 38 88.0 94.0Q63 150 63 235Q63 287 72.5 331.0Q82 375 101.0 410.0Q120 445 147.0 469.0Q174 493 209.0 506.0Q244 519 286 519Q318 519 352.0 508.5Q386 498 416 481V486Q416 501 427.0 508.0Q438 515 460 515Q482 515 492.5 508.5Q503 502 503 488V96Q503 83 507.0 74.5Q511 66 518.0 62.0Q525 58 534 58Q544 58 550.5 60.5Q557 63 563.5 68.0Q570 73 579 80Q586 86 595.0 83.5Q604 81 613 73Q622 63 623.0 52.0Q624 41 619 33Q608 17 591.0 6.0Q574 -5 554.5 -11.0Q535 -17 515 -17Q492 -17 475.0 -12.0Q458 -7 446.0 3.5Q434 14 427.5 29.0Q421 44 418 63Q418 64 417.0 67.5Q416 71 416 75Q393 38 366.5 18.0Q340 -2 312.0 -9.5Q284 -17 258 -17ZM151 239Q151 184 164.0 144.5Q177 105 203.5 84.0Q230 63 270 63Q299 63 325.5 73.0Q352 83 375.0 106.0Q398 129 416 166V408Q385 427 356.0 433.5Q327 440 295 440Q269 440 247.0 432.0Q225 424 207.0 408.0Q189 392 176.5 368.0Q164 344 157.5 312.0Q151 280 151 239Z" transform="translate(74.73599999999999, 72) scale(0.072, -0.072)" /><path d="M269 -17Q211 -17 172.0 3.5Q133 24 113.5 64.5Q94 105 94 166V489Q94 502 104.5 508.5Q115 515 136 515Q158 515 169.0 508.5Q180 502 180 489V166Q180 131 191.0 107.0Q202 83 224.5 71.0Q247 59 280 59Q308 59 332.0 68.0Q356 77 375.5 93.0Q395 109 410.0 131.0Q425 153 435 178V489Q435 502 445.5 508.5Q456 515 478 515Q499 515 510.0 508.5Q521 502 521 489V-225Q521 -301 493.5 -353.0Q466 -405 416.5 -431.0Q367 -457 300 -457Q255 -457 219.0 -444.5Q183 -432 156.5 -411.0Q130 -390 113 -367Q103 -353 105.5 -336.5Q108 -320 129 -309Q147 -300 157.5 -301.5Q168 -303 180 -317Q210 -349 239.5 -364.0Q269 -379 309 -379Q348 -379 376.0 -363.0Q404 -347 419.5 -312.5Q435 -278 435 -223V76Q422 55 404.5 37.5Q387 20 365.5 8.0Q344 -4 320.0 -10.5Q296 -17 269 -17Z" transform="translate(119.51999999999998, 72) scale(0.072, -0.072)" /><path d="M229 -15Q207 -15 197.0 -8.0Q187 -1 182 11L25 465Q18 485 29.5 500.0Q41 515 69 515Q84 515 93.0 509.0Q102 503 106 489L230 109L362 489Q367 503 376.5 509.0Q386 515 402 515Q417 515 427.0 509.0Q437 503 441 489L576 109L699 489Q704 503 713.0 509.0Q722 515 737 515Q766 515 777.0 501.0Q788 487 780 465L621 11Q617 -1 607.0 -8.0Q597 -15 575 -15Q553 -15 544.5 -7.5Q536 0 532 11L402 378L275 11Q271 0 260.5 -7.5Q250 -15 229 -15Z" transform="translate(164.736, 72) scale(0.072, -0.072)" /><path d="M161 -15Q140 -15 129.5 -8.5Q119 -2 119 11V369Q119 411 106.0 425.5Q93 440 70 440Q53 440 41.5 431.0Q30 422 23.5 405.0Q17 388 15 365Q14 349 6.0 341.5Q-2 334 -20 334Q-36 334 -46.0 341.0Q-56 348 -55 374Q-53 417 -37.5 448.5Q-22 480 5.5 497.5Q33 515 70 515Q97 515 119.0 509.0Q141 503 157.0 490.0Q173 477 183.5 458.0Q194 439 199 413L200 408Q211 434 226.0 454.5Q241 475 258.0 489.5Q275 504 293.5 511.5Q312 519 330 519Q344 519 354.5 512.0Q365 505 365 481Q365 453 370.5 434.0Q376 415 386.5 405.5Q397 396 411 396Q436 396 463.0 419.0Q490 442 515 470Q524 480 535.0 477.5Q546 475 555.5 465.0Q565 455 568.0 443.5Q571 432 564 424Q531 384 491.0 356.0Q451 328 411 328Q384 328 360.5 340.0Q337 352 321.5 376.0Q306 400 301 434Q286 428 272.5 415.0Q259 402 246.5 383.5Q234 365 223.5 341.5Q213 318 205 292V11Q205 -2 194.0 -8.5Q183 -15 161 -15Z" transform="translate(222.624, 72) scale(0.072, -0.072)" /><path d="M193 -17Q141 -17 117.5 10.0Q94 37 94 86V489Q94 502 104.5 508.5Q115 515 136 515Q158 515 169.0 508.5Q180 502 180 489V96Q180 76 189.0 67.0Q198 58 211 58Q222 58 229.5 61.5Q237 65 243.5 70.0Q250 75 258 81Q264 86 274.5 82.0Q285 78 291 70Q299 61 300.0 51.0Q301 41 295 33Q284 17 267.5 6.0Q251 -5 231.5 -11.0Q212 -17 193 -17ZM138 669Q110 669 95.5 684.5Q81 700 81 731Q81 763 95.5 779.0Q110 795 138 795Q165 795 179.0 779.0Q193 763 193 731Q194 700 179.5 684.5Q165 669 138 669Z" transform="translate(262.296, 72) scale(0.072, -0.072)" /><path d="M243 -17Q201 -17 173.5 -1.5Q146 14 132.5 42.5Q119 71 119 111V420H41Q26 420 20.0 429.0Q14 438 14 460Q14 483 20.0 491.5Q26 500 41 500H119V704Q119 717 129.5 723.5Q140 730 161 730Q183 730 194.0 723.5Q205 717 205 704V500H331Q346 500 352.5 491.5Q359 483 359 460Q359 438 352.5 429.0Q346 420 331 420H205V121Q205 87 214.5 72.5Q224 58 249 58Q272 58 288.5 69.0Q305 80 323 96Q335 107 345.5 103.5Q356 100 365 91Q376 81 376.5 70.5Q377 60 371 51Q354 26 333.0 11.0Q312 -4 289.0 -10.5Q266 -17 243 -17Z" transform="translate(283.896, 72) scale(0.072, -0.072)" /><path d="M293 -19Q214 -19 163.0 15.0Q112 49 87.5 105.0Q63 161 63 228Q63 295 81.5 348.5Q100 402 134.0 440.0Q168 478 214.5 498.5Q261 519 316 519Q365 519 401.5 504.5Q438 490 458.5 460.5Q479 431 479 386Q479 348 462.5 317.0Q446 286 416.0 262.5Q386 239 345.0 223.5Q304 208 253.0 200.0Q202 192 145 191V261Q178 261 212.5 265.5Q247 270 279.0 279.0Q311 288 336.0 302.5Q361 317 375.5 336.0Q390 355 390 379Q390 411 368.5 425.0Q347 439 311 439Q278 439 249.5 426.0Q221 413 198.5 387.5Q176 362 163.5 326.0Q151 290 151 244Q151 189 168.5 148.0Q186 107 218.0 84.0Q250 61 295 61Q325 61 346.0 68.5Q367 76 385.5 91.5Q404 107 426 129Q441 144 453.5 144.0Q466 144 480 133Q494 122 497.0 109.5Q500 97 490 84Q465 46 431.0 23.5Q397 1 361.5 -9.0Q326 -19 293 -19Z" transform="translate(311.832, 72) scale(0.072, -0.072)" /><path d="M458 -19Q382 -19 322.0 2.0Q262 23 220.0 63.5Q178 104 155.5 161.5Q133 219 133 292V926Q133 940 144.0 946.5Q155 953 177 953Q199 953 210.0 946.5Q221 940 221 926V292Q221 222 249.0 171.0Q277 120 330.0 93.0Q383 66 458 66Q532 66 583.5 93.0Q635 120 662.5 171.0Q690 222 690 292V926Q690 940 701.0 946.5Q712 953 734 953Q778 953 778 926V292Q778 195 739.5 125.0Q701 55 629.5 18.0Q558 -19 458 -19Z" transform="translate(371.30400000000003, 72) scale(0.072, -0.072)" /><path d="M344 -19Q314 -19 278.0 -13.0Q242 -7 205.5 6.5Q169 20 136.5 42.0Q104 64 81 96Q74 106 74.5 115.0Q75 124 89 138Q103 153 112.5 154.5Q122 156 141 139Q164 117 194.0 101.0Q224 85 261.5 75.5Q299 66 344 66Q399 66 439.5 77.0Q480 88 507.0 110.5Q534 133 547.5 167.5Q561 202 561 249Q561 288 547.5 316.0Q534 344 508.5 364.5Q483 385 448.0 401.5Q413 418 370 431Q333 443 295.0 458.5Q257 474 222.5 496.5Q188 519 161.5 550.0Q135 581 119.5 622.0Q104 663 104 718Q104 775 124.0 818.0Q144 861 180.5 891.5Q217 922 266.5 937.5Q316 953 376 953Q429 953 473.5 938.5Q518 924 556.0 899.5Q594 875 628 844Q639 834 637.0 823.5Q635 813 624 802Q612 789 600.5 784.0Q589 779 578 787Q550 810 520.0 828.5Q490 847 454.5 857.5Q419 868 376 868Q333 868 300.0 858.5Q267 849 243.5 830.5Q220 812 208.5 783.5Q197 755 197 718Q197 674 211.0 642.5Q225 611 251.5 588.0Q278 565 314.0 549.0Q350 533 392 520Q436 506 482.5 486.5Q529 467 567.5 436.5Q606 406 629.5 361.0Q653 316 653 249Q653 183 632.0 133.0Q611 83 571.0 49.5Q531 16 473.5 -1.5Q416 -19 344 -19Z" transform="translate(436.896, 72) scale(0.072, -0.072)" /><path d="M178 -14Q134 -14 134 14V926Q134 940 145.0 946.5Q156 953 178 953Q198 953 206.5 945.5Q215 938 222 926L554 338L887 926Q893 938 902.0 945.5Q911 953 930 953Q974 953 974 926V14Q974 0 963.0 -7.0Q952 -14 930 -14Q887 -14 887 14V756L600 251Q593 239 583.5 234.5Q574 230 555 230Q536 230 526.0 233.5Q516 237 508 251L222 756V14Q222 0 211.0 -7.0Q200 -14 178 -14Z" transform="translate(510.76800000000003, 72) scale(0.072, -0.072)" /><path d="M295 -19Q228 -19 175.5 16.0Q123 51 93.0 111.5Q63 172 63 250Q63 309 80.0 358.0Q97 407 128.5 443.0Q160 479 202.0 499.0Q244 519 295 519Q362 519 414.0 484.5Q466 450 496.0 389.0Q526 328 526 250Q526 203 515.0 162.0Q504 121 483.5 88.0Q463 55 434.5 31.0Q406 7 370.5 -6.0Q335 -19 295 -19ZM295 61Q328 61 354.5 74.0Q381 87 399.5 112.0Q418 137 428.0 172.0Q438 207 438 250Q438 308 421.0 350.5Q404 393 372.0 416.0Q340 439 295 439Q262 439 235.0 426.0Q208 413 189.5 388.0Q171 363 161.0 328.5Q151 294 151 250Q151 192 168.5 149.5Q186 107 218.0 84.0Q250 61 295 61Z" transform="translate(590.544, 72) scale(0.072, -0.072)" /><path d="M258 -17Q201 -17 157.0 10.5Q113 38 88.0 94.0Q63 150 63 235Q63 287 73.0 331.0Q83 375 101.5 410.0Q120 445 147.5 469.0Q175 493 211.0 506.0Q247 519 290 519Q320 519 354.0 510.0Q388 501 418 484V927Q418 940 429.0 946.5Q440 953 461 953Q483 953 493.5 946.5Q504 940 504 927V96Q504 76 512.5 67.0Q521 58 535 58Q544 58 551.5 61.0Q559 64 566.0 69.0Q573 74 581 80Q589 86 598.5 82.0Q608 78 615 70Q623 61 624.5 51.0Q626 41 620 33Q609 17 592.0 6.0Q575 -5 555.5 -11.0Q536 -17 516 -17Q478 -17 457.0 -3.0Q436 11 427.5 31.5Q419 52 419 73Q419 74 419.0 74.5Q419 75 419 76Q395 38 367.5 18.0Q340 -2 312.0 -9.5Q284 -17 258 -17ZM151 239Q151 184 164.0 144.5Q177 105 203.5 84.0Q230 63 270 63Q299 63 325.5 73.0Q352 83 375.5 106.0Q399 129 418 166V404Q387 424 357.0 432.0Q327 440 295 440Q269 440 247.0 432.0Q225 424 207.0 408.0Q189 392 176.5 368.0Q164 344 157.5 312.0Q151 280 151 239Z" transform="translate(632.88, 72) scale(0.072, -0.072)" /><path d="M293 -19Q214 -19 163.0 15.0Q112 49 87.5 105.0Q63 161 63 228Q63 295 81.5 348.5Q100 402 134.0 440.0Q168 478 214.5 498.5Q261 519 316 519Q365 519 401.5 504.5Q438 490 458.5 460.5Q479 431 479 386Q479 348 462.5 317.0Q446 286 416.0 262.5Q386 239 345.0 223.5Q304 208 253.0 200.0Q202 192 145 191V261Q178 261 212.5 265.5Q247 270 279.0 279.0Q311 288 336.0 302.5Q361 317 375.5 336.0Q390 355 390 379Q390 411 368.5 425.0Q347 439 311 439Q278 439 249.5 426.0Q221 413 198.5 387.5Q176 362 163.5 326.0Q151 290 151 244Q151 189 168.5 148.0Q186 107 218.0 84.0Q250 61 295 61Q325 61 346.0 68.5Q367 76 385.5 91.5Q404 107 426 129Q441 144 453.5 144.0Q466 144 480 133Q494 122 497.0 109.5Q500 97 490 84Q465 46 431.0 23.5Q397 1 361.5 -9.0Q326 -19 293 -19Z" transform="translate(678.096, 72) scale(0.072, -0.072)" /><path d="M161 -15Q140 -15 129.5 -8.5Q119 -2 119 11V369Q119 411 106.0 425.5Q93 440 70 440Q53 440 41.5 431.0Q30 422 23.5 405.0Q17 388 15 365Q14 349 6.0 341.5Q-2 334 -20 334Q-36 334 -46.0 341.0Q-56 348 -55 374Q-53 417 -37.5 448.5Q-22 480 5.5 497.5Q33 515 70 515Q97 515 119.0 509.0Q141 503 157.0 490.0Q173 477 183.5 458.0Q194 439 199 413L200 408Q211 434 226.0 454.5Q241 475 258.0 489.5Q275 504 293.5 511.5Q312 519 330 519Q344 519 354.5 512.0Q365 505 365 481Q365 453 370.5 434.0Q376 415 386.5 405.5Q397 396 411 396Q436 396 463.0 419.0Q490 442 515 470Q524 480 535.0 477.5Q546 475 555.5 465.0Q565 455 568.0 443.5Q571 432 564 424Q531 384 491.0 356.0Q451 328 411 328Q384 328 360.5 340.0Q337 352 321.5 376.0Q306 400 301 434Q286 428 272.5 415.0Q259 402 246.5 383.5Q234 365 223.5 341.5Q213 318 205 292V11Q205 -2 194.0 -8.5Q183 -15 161 -15Z" transform="translate(715.968, 72) scale(0.072, -0.072)" /><path d="M161 -15Q140 -15 129.5 -8.5Q119 -2 119 11V369Q119 411 106.0 425.5Q93 440 70 440Q53 440 41.5 431.0Q30 422 23.5 405.0Q17 388 15 365Q14 349 6.0 341.5Q-2 334 -20 334Q-36 334 -46.0 341.0Q-56 348 -55 374Q-53 417 -37.5 448.5Q-22 480 5.5 497.5Q33 515 70 515Q96 515 116.5 509.5Q137 504 153.0 492.5Q169 481 180.0 463.5Q191 446 197 422L199 414Q213 438 232.0 457.0Q251 476 273.5 490.0Q296 504 321.5 511.5Q347 519 375 519Q427 519 466.5 500.0Q506 481 528.5 440.5Q551 400 551 334V96Q551 83 555.0 74.5Q559 66 566.5 62.0Q574 58 583 58Q592 58 599.5 61.0Q607 64 614.0 69.5Q621 75 628 80Q636 86 646.0 82.0Q656 78 663 70Q671 60 671.5 50.0Q672 40 666 31Q655 16 638.5 5.0Q622 -6 603.0 -11.5Q584 -17 564 -17Q538 -17 519.0 -10.0Q500 -3 488.0 10.0Q476 23 470.5 42.5Q465 62 465 86V326Q465 361 454.5 386.5Q444 412 422.0 425.5Q400 439 363 439Q342 439 319.5 433.0Q297 427 276.5 413.5Q256 400 237.5 378.0Q219 356 205 324V11Q205 -2 194.0 -8.5Q183 -15 161 -15Z" transform="translate(755.64, 72) scale(0.072, -0.072)" /></g></svg>
